MonoIcons/scalable/status/weather-tornado-symbolic.svg

<?xml version="1.0" encoding="UTF-8"?>
<svg height="16px" viewBox="0 0 16 16" width="16px" xmlns="http://www.w3.org/2000/svg">
    <path d="m 1.972656 0.992188 c -1.339844 0 -1.339844 2.015624 0 2.015624 h 0.289063 c 0.128906 0 0.222656 0.113282 0.03125 0.226563 c -0.632813 0.535156 -0.355469 1.785156 0.683593 1.773437 h 2.261719 c 0.207031 0.007813 0.148438 0.148438 0.082031 0.207032 c -0.519531 0.417968 -0.480468 1.304687 0.121094 1.652344 c 0.089844 0.046874 0.054688 0.121093 -0.039062 0.121093 h -0.421875 c -1.398438 -0.050781 -1.398438 2.074219 0 2.023438 h 1.296875 c 0.109375 0 0.179687 0.125 0.035156 0.207031 c -0.519531 0.429688 -0.464844 1.3125 0.140625 1.664062 c 0.175781 0.101563 0.066406 0.183594 -0.015625 0.246094 c -0.597656 0.351563 -0.648438 1.242188 -0.109375 1.664063 c 0.125 0.097656 0.050781 0.1875 -0.046875 0.1875 h -0.289062 c -1.363282 0 -1.363282 2.039062 0 2.039062 h 1.019531 c 1.015625 0.019531 1.347656 -1.199219 0.722656 -1.769531 c -0.128906 -0.15625 -0.03125 -0.234375 0.039063 -0.234375 h 1.242187 c 1.355469 0 1.355469 -2.03125 0 -2.03125 h -0.289063 c -0.144531 0 -0.152343 -0.105469 -0.078124 -0.171875 c 0.503906 -0.382812 0.523437 -1.160156 0.066406 -1.574219 c -0.152344 -0.148437 -0.074219 -0.226562 0.039062 -0.226562 h 0.265625 c 1.007813 0.003906 1.308594 -1.195313 0.710938 -1.753907 c -0.113281 -0.113281 -0.089844 -0.246093 0.035156 -0.246093 h 1.253906 c 1.042969 0.011719 1.328125 -1.253907 0.679688 -1.789063 c -0.082031 -0.082031 -0.082031 -0.214844 0.070312 -0.214844 h 1.253907 c 1.34375 0 1.34375 -2.015624 0 -2.015624 h -0.320313 c -0.117187 0 -0.152344 -0.097657 -0.070313 -0.167969 c 0.726563 -0.503907 0.464844 -1.84375 -0.609374 -1.828125 z m 0 0" fill="#2e3436"/>
</svg>

<svg width="16" height="16" viewBox="0 0 16 16" fill="none" xmlns="http://www.w3.org/2000/svg">
<path d="M1.97266 0.992188C0.632812 0.992188 0.632812 3.00781 1.97266 3.00781H2.26172C2.39063 3.00781 2.48438 3.12109 2.29297 3.23437C1.66016 3.76953 1.9375 5.01953 2.97656 5.00781H5.23828C5.44531 5.01563 5.38672 5.15625 5.32031 5.21484C4.80078 5.63281 4.83984 6.51953 5.44141 6.86719C5.53125 6.91406 5.4961 6.98828 5.40235 6.98828H4.98047C3.58203 6.9375 3.58203 9.0625 4.98047 9.01172H6.27735C6.38672 9.01172 6.45703 9.13672 6.3125 9.21875C5.79297 9.64844 5.84766 10.5312 6.45313 10.8828C6.62891 10.9844 6.51953 11.0664 6.4375 11.1289C5.83985 11.4805 5.78906 12.3711 6.32813 12.793C6.45313 12.8906 6.37891 12.9805 6.28125 12.9805H5.99219C4.62891 12.9805 4.62891 15.0195 5.99219 15.0195H7.01172C8.02735 15.0391 8.35938 13.8203 7.73438 13.25C7.60547 13.0938 7.70313 13.0156 7.77344 13.0156H9.01563C10.3711 13.0156 10.3711 10.9844 9.01563 10.9844H8.72656C8.58203 10.9844 8.57422 10.8789 8.64844 10.8125C9.15235 10.4297 9.17188 9.65235 8.71485 9.23828C8.5625 9.08985 8.64063 9.01172 8.75391 9.01172H9.01953C10.0273 9.01563 10.3281 7.81641 9.73047 7.25781C9.61719 7.14453 9.64063 7.01172 9.76563 7.01172H11.0195C12.0625 7.02344 12.3477 5.75781 11.6992 5.22266C11.6172 5.14062 11.6172 5.00781 11.7695 5.00781H13.0234C14.3672 5.00781 14.3672 2.99219 13.0234 2.99219H12.7031C12.5859 2.99219 12.5508 2.89453 12.6328 2.82422C13.3594 2.32031 13.0977 0.980469 12.0234 0.996094L1.97266 0.992188Z" fill="#2E3436"/>
</svg>
